icons/actions/22/stroke-join-round.svg

<svg xmlns="http://www.w3.org/2000/svg" viewBox="0 0 22 22">
  <defs id="defs3051">
    <style type="text/css" id="current-color-scheme">
      .ColorScheme-Text {
        color:#4d4d4d;
      }
      </style>
  </defs>
 <path 
    style="fill:currentColor;fill-opacity:1;stroke:none" 
	d="m7 3c-1.108008 0-2 .891992-2 2v2 3 9h1 3v-1-8-3h1 3 3 1v-1-2-1h-1-6-3m0 1h3 6v2h-3-3-1-1v1 3 8h-2v-8-3-.275391-1.724609c0-.554.446-1 1-1m4 5v1 9h1 3v-1-5h1 1v-1-2-1h-1-1-2-2m1 1h3 1v2h-1-1v1 5h-2v-8"
	class="ColorScheme-Text"
    />  
</svg>

<?xml version="1.0"?>
<!-- Created with Inkscape (http://www.inkscape.org/) -->
<svg xmlns:dc="http://purl.org/dc/elements/1.1/" xmlns:cc="http://creativecommons.org/ns#" xmlns:rdf="http://www.w3.org/1999/02/22-rdf-syntax-ns#" xmlns:svg="http://www.w3.org/2000/svg" xmlns="http://www.w3.org/2000/svg" xmlns:sodipodi="http://sodipodi.sourceforge.net/DTD/sodipodi-0.dtd" xmlns:inkscape="http://www.inkscape.org/namespaces/inkscape" width="22" height="22" id="svg3049" version="1.1" inkscape:version="0.48+devel r" sodipodi:docname="stroke-join-round.svg" inkscape:export-filename="/home/uri/.kde/share/icons/NITRUX-KDE/16x16/actions/view-right-new.png" inkscape:export-xdpi="30" inkscape:export-ydpi="30">
  <defs id="defs3051">
    <style type="text/css" id="current-color-scheme">
      .ColorScheme-Text {
        color:#4d4d4d;
      }
      .ColorScheme-Background {
        color:#eff0f1;
      }
      .ColorScheme-Highlight {
        color:#3daee9;
      }
      .ColorScheme-ViewText {
        color:#31363b;
      }
      .ColorScheme-ViewBackground {
        color:#fcfcfc;
      }
      .ColorScheme-ViewHover {
        color:#93cee9;
      }
      .ColorScheme-ViewFocus{
        color:#3daee9;
      }
      .ColorScheme-ButtonText {
        color:#31363b;
      }
      .ColorScheme-ButtonBackground {
        color:#eff0f1;
      }
      .ColorScheme-ButtonHover {
        color:#93cee9;
      }
      .ColorScheme-ButtonFocus{
        color:#3daee9;
      }
      </style>
  </defs>
  <sodipodi:namedview id="base" pagecolor="#ffffff" bordercolor="#666666" borderopacity="1.0" inkscape:pageopacity="0.0" inkscape:pageshadow="2" inkscape:zoom="33.007813" inkscape:cx="7.9452828" inkscape:cy="13.999745" inkscape:document-units="px" inkscape:current-layer="layer1" showgrid="true" fit-margin-top="0" fit-margin-left="0" fit-margin-right="0" fit-margin-bottom="0" inkscape:window-width="1366" inkscape:window-height="666" inkscape:window-x="-2" inkscape:window-y="25" inkscape:window-maximized="1" inkscape:showpageshadow="false" borderlayer="true">
    <sodipodi:guide position="2.0000044,20.00003" orientation="18,0" id="guide4067"/>
    <sodipodi:guide position="2.0000044,2.0000296" orientation="0,18" id="guide4069"/>
    <sodipodi:guide position="20.000004,2.0000296" orientation="-18,0" id="guide4071"/>
    <sodipodi:guide position="20.000004,20.00003" orientation="0,-18" id="guide4073"/>
    <sodipodi:guide position="3.0000044,19.00003" orientation="16,0" id="guide4077"/>
    <sodipodi:guide position="3.0000044,3.0000296" orientation="0,16" id="guide4079"/>
    <sodipodi:guide position="19.000004,3.0000296" orientation="-16,0" id="guide4081"/>
    <sodipodi:guide position="19.000004,19.00003" orientation="0,-16" id="guide4083"/>
    <inkscape:grid type="xygrid" id="grid4085"/>
  </sodipodi:namedview>
  <metadata id="metadata3054">
    <rdf:RDF>
      <cc:Work rdf:about="">
        <dc:format>image/svg+xml</dc:format>
        <dc:type rdf:resource="http://purl.org/dc/dcmitype/StillImage"/>
        <dc:title/>
      </cc:Work>
    </rdf:RDF>
  </metadata>
  <g inkscape:label="Capa 1" inkscape:groupmode="layer" id="layer1" transform="translate(-421.71429,-525.79074)">
    <path style="opacity:1;fill:currentColor;fill-opacity:1;stroke:none;stroke-width:2.79999995;stroke-miterlimit:4;stroke-dasharray:none;stroke-opacity:0.55026455" d="M 7 3 C 5.8919918 3 5 3.8919918 5 5 L 5 7 L 5 10 L 5 19 L 6 19 L 9 19 L 9 18 L 9 10 L 9 7 L 10 7 L 13 7 L 16 7 L 17 7 L 17 6 L 17 4 L 17 3 L 16 3 L 10 3 L 7 3 z M 7 4 L 10 4 L 16 4 L 16 6 L 13 6 L 10 6 L 9 6 L 8 6 L 8 7 L 8 10 L 8 18 L 6 18 L 6 10 L 6 7 L 6 6.7246094 L 6 5 C 6 4.446 6.446 4 7 4 z M 11 9 L 11 10 L 11 19 L 12 19 L 15 19 L 15 18 L 15 13 L 16 13 L 17 13 L 17 12 L 17 10 L 17 9 L 16 9 L 15 9 L 13 9 L 11 9 z M 12 10 L 15 10 L 16 10 L 16 12 L 15 12 L 14 12 L 14 13 L 14 18 L 12 18 L 12 10 z " transform="translate(421.71429,525.79074)" id="rect4144" class="ColorScheme-Text"/>
  </g>
</svg>
